X:356
T: JETZT GEH ICH ANS BRUENNELEIN
N: E0203A
O: Europa, Mitteleuropa, Deutschland, Dreieichenhain
R: erzaehlendes Volks - Lied, Todes - Ahnung; betrogene Liebe
M: 3/4
L: 1/8
K: G
D2 | G3ABc | d3ed2
dccedc | B4
D2 | G3ABc | d3ed2
dccedc | B4
Bd | dcc2e2 | d2B2B2
dcA2d2 | B4
Bd | dcc2e2 | d2B2B2
dcA2d2 | B4

